X:1
T: Miss Gordon of Glastirum's Reel
C:William Marshall
R:Reel
Q: 232
K:Gm
M:4/4
L:1/8
|:B2 GB DG BG|A2 Fc AF cA|B2 GB DG BG|AG FA G1/2G1/2G G2|
B2 GB DG BG|A2 Fc AF cA|B2 GB DG BG|AG FA G1/2G1/2G G2|
dg ga bg af|cf fa bg af|dg ga bg af|ag fa g1/2g1/2g g2|
dg ga bg af|cf fa bg af|de fg fd cB|AG FA G1/2G1/2G G2:|
